!!!COM:	Agricola, Alexander
!!!CDT:	~1446-1506/08/15
!!!OPR:	Missa Malheur me bat
!!!ONM:	3
!!!OTL:	Credo
!!!AGN:	Mass; Credo
!!!SCT:	Agr1004c
!!!SCA:	Agr1004c
!!!voices:	4
!!!voices-OPR:	4
**kern	**kern	**kern	**kern
*staff4	*staff3	*staff2	*staff1
*Ivox	*Ivox	*Ivox	*Ivox
*I"Bassus	*I"Tenor	*I"Altus	*I"Superius
*I'B	*I'T	*I'A	*I'S
*>[A,B,C,D]	*>[A,B,C,D]	*>[A,B,C,D]	*>[A,B,C,D]
*>A	*>A	*>A	*>A
*clefF4	*clefGv2	*clefGv2	*clefG2
*k[]	*k[]	*k[]	*k[]
*M2/1	*M2/1	*M2/1	*M2/1
*met(C|)	*met(C|)	*met(C|)	*met(C|)
!!section: Patrem omnipotentem
!!!OMD: Patrem omnipotentem
=1-	=1-	=1-	=1-
0r	[0E	0B	0r
=2	=2	=2	=2
0r	0E_	1c	0r
.	.	1B	.
=3	=3	=3	=3
0B	0E_	0G	0r
=4	=4	=4	=4
1c	0E]	1C	0r
1B	.	2G	.
.	.	[2G	.
=5	=5	=5	=5
0G	[0E	4G]	0b
.	.	4F	.
.	.	4E	.
.	.	4D	.
.	.	2.E	.
.	.	4F	.
=6	=6	=6	=6
1C	0E]	0G	1cc
2G	.	.	1b
[2G	.	.	.
=7	=7	=7	=7
4G]	0E	2E	1g
4F	.	.	.
4E	.	2.C	.
4D	.	.	.
2C	.	.	1cc
.	.	4D	.
2AA	.	4E	.
.	.	4F	.
=8	=8	=8	=8
1GG	0B	2G	2b
.	.	2E	2.b
1GG	.	2D	.
.	.	.	4a
.	.	[2G	4g
.	.	.	4f
=9	=9	=9	=9
1C	1c	2G]	1e
.	.	2.G	.
2.GG	1B	.	[1d
.	.	4A	.
.	.	4B	.
4AA	.	4c	.
=10	=10	=10	=10
2BB	0G	2d	2d]
2.C	.	2.c	2.e
4D	.	4B	4d
2E	.	2c	[2g
=11	=11	=11	=11
1D	1A	1d	2g]
.	.	.	2f#i
1E	1G	[1B	[1g
=12	=12	=12	=12
1.G	0E	2B]	1g]
.	.	2.e	.
.	.	.	1c
.	.	4d	.
4F	.	[2c	.
4E	.	.	.
=13	=13	=13	=13
1D	1F	2c]	1d
.	.	2B	.
[1C	1E	1c	[1e
=14	=14	=14	=14
1C]	1C	1e	1e]
1BB-	1D	1d	1f
=15	=15	=15	=15
1C	2.E	1c	1e
.	4F	.	.
2BB	2G	1r	2d
[2AA	2A	.	[2c
=16	=16	=16	=16
2AA]	1E	1r	2c]
2GG	.	.	2B
1D	1F	[1A	2A
.	.	.	[2d
=17	=17	=17	=17
0AA	0E	0A]	2d]
.	.	.	4c
.	.	.	4B
.	.	.	1c
=18	=18	=18	=18
1GG	0r	1B	1d
2C	.	2c	2e
[2BB-	.	[2d	[2f
=19	=19	=19	=19
2BB-]	0r	2d]	2f]
2C	.	1c	2e
1GG	.	.	1d
.	.	2B	.
=20	=20	=20	=20
[0C	0e	1c	1c
.	.	2r	[1g
.	.	[2c	.
=21	=21	=21	=21
1C]	0e	4c]	2g]
.	.	4d	.
.	.	4e	2g
.	.	4f	.
[1C	.	2g	1g
.	.	[2c	.
=22	=22	=22	=22
2C]	1e	2c]	1g
2C	.	4B	.
.	.	4A	.
1C	1e	2G	1g
.	.	2c	.
=23	=23	=23	=23
1F	0c	2A	1a
.	.	2F	.
2E	.	2G	2g
[2F	.	2F	[2a
=24	=24	=24	=24
4F]	0c	2.A	4a]
4G	.	.	4b
2A	.	.	2cc
.	.	4B	.
2E	.	1c	2g
2A	.	.	2cc
=25	=25	=25	=25
2G	0d	1r	2b
1F	.	.	1a
.	.	1F	.
4E	.	.	4g
4D	.	.	4f
=26	=26	=26	=26
0C	[0e	1.c	0g
.	.	2d	.
=27	=27	=27	=27
1AA	0e]	1c	1a
1AA	.	1c	1a
=28	=28	=28	=28
1D	0A	1d	1f
1D	.	1d	1f
=29	=29	=29	=29
1GG	0B	1d	2g
.	.	.	4f
.	.	.	4e
1GG	.	1G	1d
=30	=30	=30	=30
1.AA	1c	1E	0c
.	1c	2F	.
[2FF	.	[2A	.
=31	=31	=31	=31
2FF]	0c	2A]	0r
2GG	.	1G	.
1AA	.	.	.
.	.	2F#i	.
=32	=32	=32	=32
0GG	0B	1.G	1.d
.	.	2A	2c
=33	=33	=33	=33
1G	0G	1B	1d
1E	.	2B	[1e
.	.	[2c	.
=34	=34	=34	=34
2.F	0A	4c]	2e]
.	.	4B	.
.	.	4A	4d
4E	.	4G	4c
1F	.	2F	1d
.	.	2A	.
=35	=35	=35	=35
1E	1B	1G	1e
1C	1E	1G	1r
=36	=36	=36	=36
2C	0e	1c	1.g
1C	.	.	.
.	.	1G	.
2C	.	.	2a
=37	=37	=37	=37
1GG	0d	1G	1b
1GG	.	1G	1b
=38	=38	=38	=38
1AA	1c	1C	0cc
1AA	1c	1C	.
=39	=39	=39	=39
0GG	0d	1G	1b
.	.	2G	1b
.	.	2G	.
=40	=40	=40	=40
0r	0d	2F	2a
.	.	2.G	2.b
.	.	4F	4a
.	.	2G	4g
.	.	.	4f
=41	=41	=41	=41
1.C	1c	2A	1.e
.	.	2.G	.
.	1c	.	.
.	.	4F	.
2C	.	4E	2e
.	.	4D	.
=42	=42	=42	=42
1C	1.c	1C	1e
1C	.	1G	1e
.	2c	.	.
=43	=43	=43	=43
0GG	1B	2.G	1d
.	.	4A	.
.	1B	4B	1d
.	.	4c	.
.	.	[2d	.
=44	=44	=44	=44
1GG	0B	2d]	1g
.	.	2G	.
1GG	.	1d	1g
=45	=45	=45	=45
2.D	0A	1d	2.f
4E	.	.	4g
2F	.	2c	2a
[2D	.	2d	[2f
=46	=46	=46	=46
2D]	2B	1e	4f]
.	.	.	4d
2C	2c	.	1g
1D	1A	1d	.
.	.	.	2f#i
=47	=47	=47	=47
1E	0G	1B	1.g
1C	.	[1c	.
.	.	.	4f
.	.	.	4e
=48	=48	=48	=48
0G	1r	2c]	0d
.	.	4B	.
.	.	4A	.
.	1B	2.G	.
.	.	4F	.
=49	=49	=49	=49
0C	1c	1G	0e
.	1c	1G	.
=50	=50	=50	=50
1r	1B	1G	1d
[1C	[1e	1G	[1g
=51	=51	=51	=51
1C]	2e]	1G	2g]
.	4d	.	2a
.	4c	.	.
[1GG	1d	1G	2b
.	.	.	2cc
=52	=52	=52	=52
2GG]	1B	1G	1dd
2GG	.	.	.
1GG	1B	2G	1b
.	.	[2G	.
=53	=53	=53	=53
0AA	1c	2G]	0a
.	.	4F#i	.
.	.	4E	.
.	1c	1F#i	.
=54	=54	=54	=54
1GG	1B	0G	1b
[1C	[1e	.	1g
=55	=55	=55	=55
2C]	2e]	1r	1a
2BB	2d	.	.
1AA	1c	1C	[1cc
=56	=56	=56	=56
0GG	1d	[0G	2cc]
.	.	.	4b
.	.	.	4a
.	1d	.	1b
=57	=57	=57	=57
1.C	0c	1G]	0cc
.	.	1c	.
4BB	.	.	.
4AA	.	.	.
=58	=58	=58	=58
2GG	1B	1d	0r
2G	.	.	.
2E	[1c	1e	.
[2A	.	.	.
=59	=59	=59	=59
2A]	2c]	2c	0r
2G	2B	2.d	.
2F	[1A	.	.
.	.	4e	.
[2D	.	[2f	.
=60	=60	=60	=60
2D]	1A]	4f]	0r
.	.	4e	.
2F	.	1d	.
1E	1G	.	.
.	.	2c#i	.
=61	=61	=61	=61
2D	1A	1d	1r
4C	.	.	.
4BB	.	.	.
1AA	1c	1e	[1a
=62	=62	=62	=62
1E	0B	2e	1a]
.	.	1e	.
2r	.	.	1g
2E	.	[2e	.
=63	=63	=63	=63
2.F	2.A	2e]	1a
.	.	2d	.
4E	4B	.	.
1C	4c	2e	1cc
.	4d	.	.
.	[2e	[2g	.
=64	=64	=64	=64
1G	2e]	2g]	0b
.	4d	4f	.
.	4c	4e	.
2r	1d	2d	.
2G	.	[2g	.
=65	=65	=65	=65
2.A	1c	2g]	1r
.	.	2f	.
4G	.	.	.
1E	[1e	1g	[1g
=66	=66	=66	=66
1B	1e]	1G	2g]
.	.	.	4f
.	.	.	4e
2r	1d	1r	2f
2B	.	.	2d
=67	=67	=67	=67
1.c	1.e	0C	2c
.	.	.	2.A
.	.	.	4B
4B	4d	.	4c
4A	4c	.	8BL
.	.	.	8cJ
=68	=68	=68	=68
1G	1B	1.G	1d
1C	1c	.	1e
.	.	2A	.
=69	=69	=69	=69
1.G	1B	1B	1d
.	[1G	[1E	1g
2A	.	.	.
=70	=70	=70	=70
1B	2G]	2E]	0r
.	2A	2F	.
2.E	1B	2.G	.
4F	.	4A	.
=71	=71	=71	=71
2G	2.E	2B	1r
2A	.	2c	.
.	4F	.	.
2B	2G	2B	2.e
2c	2A	2A	.
.	.	.	4f
=72	=72	=72	=72
2r	2B	2G	2g
2F	2c	2.F	2a
2D	2d	.	2b
.	.	4E	.
[2C	[2e	2G	[2cc
=73	=73	=73	=73
2C]	2e]	2E	2cc]
2D	4d	2F	4b
.	4c	.	4a
1E	1B	2G	1g
.	.	2E	.
=74	=74	=74	=74
1AA	[0A	1E	0a
[1D	.	[1F	.
=75	=75	=75	=75
1D]	0A]	2F]	1.a
.	.	4E	.
.	.	4D	.
1C	.	1E	.
.	.	.	2g
=76	=76	=76	=76
0D	1r	2D	1.f
.	.	1F	.
.	1A	.	.
.	.	2G	4e
.	.	.	4d
=77	=77	=77	=77
1.AA	1.c	1.A	1c
.	.	.	[1cc
2BB	2d	4G	.
.	.	4F	.
=78	=78	=78	=78
0C	1.e	1.E	2cc]
.	.	.	4b
.	.	.	4a
.	.	.	[1g
.	2d	2F	.
=79	=79	=79	=79
1r	1B	1G	2g]
.	.	.	2f
[1AA	[1c	2A	2.e
.	.	[2c	.
.	.	.	4d
=80	=80	=80	=80
1AA]	2c]	4c]	1e
.	.	4B	.
.	2A	4A	.
.	.	4G	.
1FF	1c	1A	1f
=81	=81	=81	=81
0GG	0B	0G	2e
.	.	.	1d
.	.	.	4c
.	.	.	4B
=82	=82	=82	=82
2.AA	1E	1r	2.c
4BB	.	.	4d
4C	1E	[1c	4e
4D	.	.	4f
[2E	.	.	[2g
=83	=83	=83	=83
2E]	1E	1c]	4g]
.	.	.	4f
2C	.	.	1e
1D	1F	1A	.
.	.	.	2d
=84	=84	=84	=84
0AA	0E	2.A	0e
.	.	4G	.
.	.	4A	.
.	.	4B	.
.	.	[2c	.
=85	=85	=85	=85
1AA	0r	4c]	1c
.	.	4B	.
.	.	1A	.
1BB-	.	.	1d
.	.	2G	.
=86	=86	=86	=86
1AA	2r	1A	2c
.	1A	.	2A
1E	.	1r	1B
.	2G	.	.
=87	=87	=87	=87
1AA	1A	2r	1A
.	.	1A	.
1E	1B	.	1r
.	.	2G	.
=88	=88	=88	=88
2AA	1c	1A	0r
2A	.	.	.
2G	2B	2B	.
2E	2A	[2c	.
=89	=89	=89	=89
2F	1A	2c]	0r
2D	.	2.d	.
2E	2G	.	.
.	.	4c	.
2C	[2G	[2c	.
=90	=90	=90	=90
1D	2G]	2c]	1r
.	2F	2B	.
2C	1G	1c	2r
2E	.	.	[2g
=91	=91	=91	=91
1D	1A	2.d	2g]
.	.	.	2f
.	.	4c	.
1E	[1G	2.B	1g
.	.	4A	.
=92	=92	=92	=92
0r	2G]	2G	1g
.	1c	2E	.
.	.	1F	1a
.	2d	.	.
=93	=93	=93	=93
[0C	[0e	1E	0g
.	.	1r	.
=94	=94	=94	=94
0C_	0e]	1c	1g
.	.	1c	1g
=95	=95	=95	=95
0C]	1e	2c	1g
.	.	1c	.
.	1e	.	1g
.	.	2c	.
=96	=96	=96	=96
0GG	1d	1B	1g
.	2.d	1B	2d
.	.	.	[2g
.	4c	.	.
=97	=97	=97	=97
1GG	1B	1G	2g]
.	.	.	4f
.	.	.	4e
2.G	1B	1G	1d
4F	.	.	.
=98	=98	=98	=98
4E	1c	1A	1c
4D	.	.	.
2E	.	.	.
1D	[1d	1A	1f
=99	=99	=99	=99
1.G	2d]	1.B	1d
.	2c	.	.
.	2B	.	[1g
2F	2A	4A	.
.	.	4B	.
=100	=100	=100	=100
1E	1G	2c	1g]
.	.	2B	.
1C	[1c	2c	1e
.	.	[2A	.
=101	=101	=101	=101
0D	1c]	4A]	1.f
.	.	4G	.
.	.	4F	.
.	.	4E	.
.	1B	2F	.
.	.	4E	4e
.	.	4F	4d
=102	=102	=102	=102
0C	1c	1G	0e
.	[1e	1c	.
=103	=103	=103	=103
[0E	2e]	1B	1r
.	4d	.	.
.	4c	.	.
.	[1B	[1e	[1g
=104	=104	=104	=104
0E]	0B]	1e]	1g]
.	.	1e	1g
=105	=105	=105	=105
0D	1d	1f	1a
.	1d	1f	1b
=106	=106	=106	=106
1.C	1G	1.e	1.cc
.	1G	.	.
2D	.	4d	4b
.	.	4c	4a
=107	=107	=107	=107
1E	2.G	1B	1g
.	4F	.	.
1F	1D	1A	[1a
=108	=108	=108	=108
0E	1.G	0B	1a]
.	.	.	1g
.	[2G	.	.
=109	=109	=109	=109
0AA	2G]	0c	1.a
.	4F	.	.
.	4E	.	.
.	1F	.	.
.	.	.	4g
.	.	.	4a
=110	=110	=110	=110
0GG	0G	1B	0b
.	.	1d	.
=111	=111	=111	=111
1r	1r	1r	1r
1C	1G	1e	1g
=112	=112	=112	=112
0C	0c	0e	0g
=113	=113	=113	=113
0C	1.c	0e	0g
.	2B	.	.
=114	=114	=114	=114
1.F	2A	1c	1.a
.	2G	.	.
.	[1F	[1A	.
2E	.	.	2g
=115	=115	=115	=115
1D	2F]	2A]	1f
.	4E	2B	.
.	4D	.	.
1C	2G	2c	1e
.	2E	2A	.
=116	=116	=116	=116
0BB-	4F	4B-i	0d
.	4E	4A	.
.	4D	4G	.
.	4C	4F	.
.	1D	1G	.
=117	=117	=117	=117
1AA	1E	1A	1c
1BB-i	1D	[1d	[1f
=118	=118	=118	=118
0C	0E	2d]	2f]
.	.	2c	2e
.	.	[1c	[1e
=119	=119	=119	=119
0D	0F	1c]	1e]
.	.	1B	1d
=120	=120	=120	=120
[0C	0E	1.c	0e
.	.	4B	.
.	.	4A	.
=121	=121	=121	=121
0C]	1.E	1G	1.e
.	.	1A	.
.	2C	.	4d
.	.	.	4c
=122	=122	=122	=122
0GGl	0Gl	0Bl	0dl
!!LO:LB:i:g=z
=123||	=123||	=123||	=123||
*>B	*>B	*>B	*>B
*clefF4	*clefGv2	*clefGv2	*clefG2
*k[]	*k[]	*k[]	*k[]
*M3/1	*M3/1	*M3/1	*M3/1
*met(O)	*met(O)	*met(O)	*met(O)
!!section: Crucifixus etiam
!!!OMD: Crucifixus etiam
0.r	1B	0.r	1r
.	1B	.	1r
.	1B	.	1g
=124	=124	=124	=124
0.r	2c	0.r	1g
.	4B	.	.
.	2c	.	.
.	.	.	1g
.	8BL	.	.
.	8AJ	.	.
.	2B	.	.
.	2A	.	2.a
.	[2d	.	.
.	.	.	4g
=125	=125	=125	=125
0.r	2d]	0.r	2f
.	2.c	.	2.e
.	4B	.	4d
.	2.B	.	2.g
.	4A	.	4f
.	2A	.	[2f
=126	=126	=126	=126
0.r	2B-i	0.r	4f]
.	.	.	4e
.	2G	.	1e
.	1F	.	.
.	.	.	2d
.	2E	.	2e
.	[2G	.	[2d
=127	=127	=127	=127
0.r	4G]	0.r	4d]
.	8AL	.	4c
.	8GJ	.	.
.	2A	.	2.c
.	2B	.	.
.	.	.	4B
.	4r	.	1B
.	2d	.	.
.	8cL	.	.
.	8BJ	.	.
.	2c	.	2A
=128	=128	=128	=128
0.r	1B	0.r	2B
.	.	.	4r
.	.	.	2d
.	2G	.	.
.	.	.	8cL
.	.	.	8BJ
.	2A	.	2c
.	2B	.	2B
.	[2c	.	[2e
=129	=129	=129	=129
0.r	4c]	0.r	4e]
.	8BL	.	8dL
.	8AJ	.	8cJ
.	4B	.	2d
.	4G	.	.
.	4A	.	2c
.	4F	.	.
.	2E	.	2.g
.	4r	.	.
.	2e	.	8fL
.	.	.	8eJ
.	.	.	2f
.	4d	.	.
=130	=130	=130	=130
0.r	4e	0.r	2e
.	2c	.	.
.	.	.	2a
.	8BL	.	.
.	8AJ	.	.
.	2B	.	2g
.	2A	.	2.cc
.	1d	.	.
.	.	.	4b
.	.	.	[2b
=131	=131	=131	=131
0.r	2.c	0.r	2b]
.	.	.	2a
.	8BL	.	.
.	8AJ	.	.
.	2.G	.	2b
.	.	.	2.dd
.	4A	.	.
.	2B	.	.
.	.	.	4cc
.	2c	.	[2cc
=132	=132	=132	=132
0.r	1d	0.r	2cc]
.	.	.	2b
.	1c	.	0cc
.	2r	.	.
.	2c	.	.
=133	=133	=133	=133
0.r	2B	0.r	2r
.	1A	.	1cc
.	2G	.	2b
.	1F	.	1a
=134	=134	=134	=134
0.r	2E	0.r	2.g
.	2e	.	.
.	.	.	4a
.	2.d	.	2b
.	.	.	2.a
.	4c	.	.
.	2f	.	.
.	.	.	4g
.	2e	.	2cc
=135	=135	=135	=135
0.r	2d	0.r	4b
.	.	.	2a
.	4f	.	.
.	2e	.	4g
.	.	.	2b
.	4d	.	.
.	2c	.	4a
.	.	.	2g
.	4e	.	.
.	2d	.	4f
.	.	.	2a
.	4c	.	.
=136	=136	=136	=136
0.r	2B	0.r	4g
.	.	.	2f
.	4d	.	.
.	2c	.	4e
.	.	.	2g
.	4B	.	.
.	4.A	.	4f
.	.	.	2e
.	8B	.	.
.	4c	.	.
.	4B	.	4d
.	4A	.	2f
.	[4d	.	.
=137	=137	=137	=137
0.r	4d]	0.r	2e
.	2c	.	.
.	.	.	2a
.	8BL	.	.
.	8AJ	.	.
.	4B	.	2g
.	2E	.	.
.	.	.	4e
.	4D	.	2f
.	4E	.	.
.	4G	.	2e
.	2F	.	.
.	.	.	4d
=138	=138	=138	=138
0.r	0.El	0.r	0.el
!!LO:LB:i:g=z
=139||	=139||	=139||	=139||
*>C	*>C	*>C	*>C
*clefF4	*clefGv2	*clefGv2	*clefG2
*k[]	*k[]	*k[]	*k[]
*M2/1	*M2/1	*M2/1	*M2/1
*met(C|)	*met(C|)	*met(C|)	*met(C|)
!!section: Et resurrexit
!!!OMD: Et resurrexit
!!section: Et resurrexit
!!!OMD: Et resurrexit
[0E	0r	0E	0r
=140	=140	=140	=140
0E_	0r	1.G	0r
.	.	2A	.
=141	=141	=141	=141
0E_	0r	1B	0r
.	.	[1c	.
=142	=142	=142	=142
0E]	0r	2c]	0r
.	.	1B	.
.	.	4A	.
.	.	4G	.
=143	=143	=143	=143
0F	0r	1A	0r
.	.	1D	.
=144	=144	=144	=144
0E	0r	1r	0r
.	.	1G	.
=145	=145	=145	=145
0AA	0r	1A	0r
.	.	[1c	.
=146	=146	=146	=146
1.C	0r	2c]	0r
.	.	2B	.
.	.	1A	.
2D	.	.	.
=147	=147	=147	=147
1E	0r	2G	0r
.	.	4F	.
.	.	4E	.
[1F	.	1D	.
=148	=148	=148	=148
2F]	0r	2r	0r
1E	.	1G	.
4D	.	[2c	.
4C	.	.	.
=149	=149	=149	=149
1D	0r	4c]	0r
.	.	4B	.
.	.	4B	.
.	.	4A	.
1GG	.	2B	.
.	.	[2d	.
=150	=150	=150	=150
1C	0r	4d]	0r
.	.	4c	.
.	.	2.c	.
1D	.	.	.
.	.	4B	.
.	.	4B	.
.	.	4A	.
=151	=151	=151	=151
0C	0r	1c	0r
.	.	[1e	.
=152	=152	=152	=152
0G	0r	2e]	0r
.	.	2d	.
.	.	1B	.
=153	=153	=153	=153
0A	0r	1.c	0r
.	.	4B	.
.	.	4A	.
=154	=154	=154	=154
[0G	0r	1B	0r
.	.	1E	.
=155	=155	=155	=155
0G]	0r	1r	0r
.	.	1B	.
=156	=156	=156	=156
1r	0r	1A	0r
[1A	.	[1c	.
=157	=157	=157	=157
2A]	0r	2c]	0r
2G	.	2B	.
1E	.	[1e	.
=158	=158	=158	=158
0F	0r	1e]	0r
.	.	1d	.
=159	=159	=159	=159
0E	0r	1e	0r
.	.	1E	.
=160	=160	=160	=160
1r	0r	1D	0r
1E	.	1G	.
=161	=161	=161	=161
1C	0r	2r	0r
.	.	2B	.
[1F	.	2A	.
.	.	[2d	.
=162	=162	=162	=162
2F]	0r	2d]	0r
2E	.	1c	.
[1A	.	.	.
.	.	2A	.
=163	=163	=163	=163
2A]	0r	2c	0r
4G	.	2d	.
4F	.	.	.
1G	.	1B	.
=164	=164	=164	=164
1.A	0r	4A	0r
.	.	4B	.
.	.	4c	.
.	.	4d	.
.	.	2c	.
4G	.	4B	.
4F	.	4A	.
=165	=165	=165	=165
4G	0r	4B	0r
4F	.	4A	.
4E	.	4G	.
4D	.	4F	.
2C	.	2E	.
[2D	.	[2F	.
=166	=166	=166	=166
2D]	0r	4F]	0r
.	.	4D	.
4C	.	1G	.
4BB	.	.	.
1AA	.	.	.
.	.	2F#i	.
=167	=167	=167	=167
1GG	0r	1G	0r
1G	.	2E	.
.	.	[2G	.
=168	=168	=168	=168
2E	0r	4G]	0r
.	.	4A	.
1G	.	2.B	.
.	.	4A	.
2E	.	[2G	.
=169	=169	=169	=169
2.G	0r	4G]	0r
.	.	4F	.
.	.	1E	.
4A	.	.	.
1F	.	.	.
.	.	2D	.
=170	=170	=170	=170
0E	0r	1E	0r
.	.	1r	.
=171	=171	=171	=171
1r	0r	0B	0r
[1E	.	.	.
=172	=172	=172	=172
1E]	0r	1G	0r
1C	.	[1c	.
=173	=173	=173	=173
1.F	0r	2c]	0r
.	.	2B	.
.	.	2A	.
2E	.	2G	.
=174	=174	=174	=174
2D	0r	2F	0r
2C	.	4E	.
.	.	4F	.
2BB	.	2G	.
4AA	.	2A	.
4BB	.	.	.
=175	=175	=175	=175
2C	0r	4G	0r
.	.	4A	.
2D	.	2B	.
4C	.	2c	.
4D	.	.	.
2E	.	4B	.
.	.	4c	.
=176	=176	=176	=176
2F	0r	2d	0r
4E	.	2e	.
4F	.	.	.
2G	.	4d	.
.	.	4B	.
2A	.	2c	.
=177	=177	=177	=177
4G	0r	2B	0r
4E	.	.	.
2F	.	2A	.
2G	.	2B	.
2E	.	2G	.
=178	=178	=178	=178
1D	0r	2A	0r
.	.	1d	.
1G	.	.	.
.	.	[2B	.
=179	=179	=179	=179
1E	0r	2B]	0r
.	.	1G	.
1C	.	.	.
.	.	2c	.
=180	=180	=180	=180
0D	0r	2B	0r
.	.	2A	.
.	.	4B	.
.	.	4A	.
.	.	4G	.
.	.	4F	.
=181	=181	=181	=181
1.C	0r	2E	0r
.	.	1A	.
2BB	.	[2G	.
=182	=182	=182	=182
2C	0r	2G]	0r
2AA	.	1F	.
1GG	.	.	.
.	.	2E	.
=183	=183	=183	=183
1FF	0r	2F	0r
.	.	2.A	.
1F	.	.	.
.	.	4B	.
.	.	[2c	.
=184	=184	=184	=184
2E	0r	2c]	0r
1A	.	4B	.
.	.	4A	.
.	.	1B	.
2G#i	.	.	.
=185	=185	=185	=185
1A	0r	2r	0r
.	.	2A	.
2r	.	[1c	.
[2A	.	.	.
=186	=186	=186	=186
2A]	0r	2c]	0r
4G	.	4B	.
4F	.	4A	.
2G	.	2B	.
2A	.	[2A	.
=187	=187	=187	=187
2F	0r	2A]	0r
4E	.	4G	.
4D	.	4F	.
2E	.	2G	.
2F	.	[2F	.
=188	=188	=188	=188
2D	0r	2F]	0r
4C	.	4E	.
4BB	.	4D	.
2C	.	2E	.
2D	.	2F	.
=189	=189	=189	=189
2C	0r	2E	0r
4BB	.	4D	.
4AA	.	4C	.
2BB	.	2D	.
2C	.	[2C	.
=190	=190	=190	=190
2AA	0r	2C]	0r
4GG	.	4BB	.
4FF	.	4AA	.
2GG	.	2BB	.
2AA	.	[2AA	.
=191	=191	=191	=191
2C	0r	2AA]	0r
2D	.	1A	.
1BB	.	.	.
.	.	2G#i	.
=192	=192	=192	=192
0AAl	0r	0Al	0r
!!LO:LB:i:g=z
=193||	=193||	=193||	=193||
*>D	*>D	*>D	*>D
*clefF4	*clefGv2	*clefGv2	*clefG2
*k[]	*k[]	*k[]	*k[]
*M2/1	*M2/1	*M2/1	*M2/1
*met(C|)	*met(C|)	*met(C|)	*met(C|)
!!section: Et ascendit
!!!OMD: Et ascendit
0r	0r	1B	1r
.	.	1c	1e
=194	=194	=194	=194
0r	0r	1d	1f
.	.	1B	1g
=195	=195	=195	=195
0r	0r	1c	1e
.	.	1d	1f
=196	=196	=196	=196
0r	1r	1e	0g
.	1B	2d	.
.	.	4c	.
.	.	4B	.
=197	=197	=197	=197
0r	1c	2A	1a
.	.	1F	.
.	1d	.	1r
.	.	[2G	.
=198	=198	=198	=198
1r	1B	4G]	0r
.	.	4F	.
.	.	4E	.
.	.	4D	.
1AA	1c	2E	.
.	.	[2F	.
=199	=199	=199	=199
1BB	1d	2F]	0r
.	.	1G	.
1C	[1e	.	.
.	.	[2A	.
=200	=200	=200	=200
1AA	1e]	4A]	0r
.	.	4G	.
.	.	4F	.
.	.	4E	.
1BB	1r	2D	.
.	.	[2d	.
=201	=201	=201	=201
1C	1e	2d]	0r
.	.	1c	.
1D	1f	.	.
.	.	4B	.
.	.	4A	.
=202	=202	=202	=202
1r	2e	2G	0r
.	2.f	2F	.
1D	.	2A	.
.	4e	.	.
.	[2d	2B	.
=203	=203	=203	=203
1E	4d]	1G	1r
.	4c#i	.	.
.	2c#i	.	.
[1D	[1d	1F	1a
=204	=204	=204	=204
1D]	1d]	1F	1a
1D	1A	1F	1a
=205	=205	=205	=205
1AA	1.A	1.E	1.cc
[1AA	.	.	.
.	4G	2E	2cc
.	4F	.	.
=206	=206	=206	=206
2AA]	2E	1E	1cc
2AA	2.C	.	.
[1AA	.	1e	[1cc
.	4D	.	.
.	4E	.	.
.	4F	.	.
=207	=207	=207	=207
1AA]	2E	1c	2cc]
.	2C	.	4b
.	.	.	4a
1GG	1G	1d	2b
.	.	.	[2g
=208	=208	=208	=208
0C	1E	2.e	2g]
.	.	.	2e
.	.	4d	.
.	1G	2.c	[1e
.	.	4B	.
=209	=209	=209	=209
0D	0F	[0A	2e]
.	.	.	4d
.	.	.	4c
.	.	.	1d
=210	=210	=210	=210
0AA	1E	1A]	0c
.	[1E	1A	.
=211	=211	=211	=211
1AA	2E]	1.A	1c
.	2E	.	.
[1AA	1E	.	[1c
.	.	2A	.
=212	=212	=212	=212
2AA]	2r	1A	2c]
2AA	2E	.	2c
1AA	1A	1A	1c
=213	=213	=213	=213
1AA	1A	1c	2r
.	.	.	2c
1C	1G	1c	1e
=214	=214	=214	=214
1C	2r	1G	1e
.	2G	.	.
1GG	1B	1G	1d
=215	=215	=215	=215
1GG	1B	1d	2r
.	.	.	2d
1D	1A	1d	1f
=216	=216	=216	=216
1D	2r	1A	1f
.	2A	.	.
1AA	1c	1A	1e
=217	=217	=217	=217
1AA	1c	2e	2r
.	.	1e	2e
1E	1B	.	1g
.	.	4d	.
.	.	4c	.
=218	=218	=218	=218
1E	2r	2B	1g
.	2B	2G	.
1D	1d	2.A	1f
.	.	4G	.
=219	=219	=219	=219
1BB	1d	2F	2r
.	.	2D	2f
1AA	[1c	2E	1a
.	.	2F	.
=220	=220	=220	=220
1AA	2c]	2E	1a
.	4B	2F	.
.	4A	.	.
1E	2B	2E	2.g
.	2c	2C	.
.	.	.	4a
=221	=221	=221	=221
2D	2B	2D	2b
2C	2e	2G	2.cc
2AA	2c	2A	.
.	.	.	4b
[2GG	[2d	2B	[2b
=222	=222	=222	=222
2GG]	4d]	2G	4b]
.	4A	.	4a
2AA	2c	2F	1a
1E	1B	2.G	.
.	.	.	2g#i
.	.	4E	.
=223	=223	=223	=223
0AA	0A	2E	1.a
.	.	1F	.
.	.	4E	4g
.	.	4D	4f
=224	=224	=224	=224
0r	0r	2C	1e
.	.	2G	.
.	.	2A	2f
.	.	2B	2g
=225	=225	=225	=225
0r	1r	2A	2f
.	.	1d	2d
.	2r	.	1e
.	2A	2c	.
=226	=226	=226	=226
0r	2.B	2.d	2d
.	.	.	2.g
.	4A	4c	.
.	2G	4B	.
.	.	4A	4f
.	2F	2c	[2a
=227	=227	=227	=227
1r	1E	1G	4a]
.	.	.	4g
.	.	.	1g
2r	1D	1A	.
2D	.	.	2f#i
=228	=228	=228	=228
2.E	0r	2.G	0g
4D	.	4F	.
2C	.	4E	.
.	.	4D	.
2BB	.	[2G	.
=229	=229	=229	=229
1AA	2r	2G]	0r
.	2A	2F#i	.
1GG	2.B	1G	.
.	4A	.	.
=230	=230	=230	=230
2r	2G	0r	0r
1D	2F	.	.
.	1E	.	.
2C	.	.	.
=231	=231	=231	=231
2.D	1D	0r	0r
4C	.	.	.
2AA	2r	.	.
2C	[2A	.	.
=232	=232	=232	=232
1BB	2A]	0r	0r
.	2G	.	.
1AA	2.A	.	.
.	4G	.	.
=233	=233	=233	=233
2.A	4F	0r	0r
.	4E	.	.
.	2F	.	.
4G	.	.	.
4G	2E	.	.
4F	.	.	.
2A	[2e	.	.
=234	=234	=234	=234
1F	4e]	0r	0r
.	4d	.	.
.	4d	.	.
.	4c	.	.
1E	2e	.	.
.	[2c	.	.
=235	=235	=235	=235
2F	2c]	0r	0r
2.G	2.B	.	.
4F	4A	.	.
4F	[2d	.	.
4E	.	.	.
=236	=236	=236	=236
2G	4d]	0r	0r
.	4c	.	.
2E	2.c	.	.
1D	.	.	.
.	4B	.	.
.	4B	.	.
.	4A	.	.
=237	=237	=237	=237
1.C	2c	0E	0r
.	4B	.	.
.	4A	.	.
.	1G	.	.
4BB	.	.	.
4AA	.	.	.
=238	=238	=238	=238
0GG	2r	0B	0r
.	2.G	.	.
.	4F	.	.
.	4E	.	.
.	4D	.	.
=239	=239	=239	=239
0r	2C	0c	0e
.	2AA	.	.
.	1A	.	.
=240	=240	=240	=240
0r	4G	1B	0b
.	4A	.	.
.	4B	.	.
.	4c	.	.
.	2d	1G	.
.	[2G	.	.
=241	=241	=241	=241
0AA	2G]	0A	0cc
.	4F	.	.
.	4E	.	.
.	2F	.	.
.	2E	.	.
=242	=242	=242	=242
0E	2.G	1.G	1b
.	4A	.	.
.	2B	.	1g
.	[2c	2E	.
=243	=243	=243	=243
0F	4c]	2.D	0a
.	4B	.	.
.	4A	.	.
.	4G	4E	.
.	1F	1D	.
=244	=244	=244	=244
1E	1.G	2E	1g
.	.	1C	.
1C	.	.	1e
.	[2A	[2c	.
=245	=245	=245	=245
0D	4A]	2c]	0f
.	4G	.	.
.	4F	4B	.
.	4E	4A	.
.	1F	1B	.
=246	=246	=246	=246
1.C	1G	1.c	1e
.	1r	.	1r
2D	.	[2B	.
=247	=247	=247	=247
2E	0r	4B]	1r
.	.	4A	.
2C	.	1A	.
1BB	.	.	1d
.	.	2G#i	.
=248	=248	=248	=248
1AA	0E	1A	2.c
.	.	.	4d
1r	.	2G	4e
.	.	.	4f
.	.	[2E	[2g
=249	=249	=249	=249
1r	0B	2E]	2g]
.	.	2F	4f
.	.	.	4e
1GG	.	1G	1d
=250	=250	=250	=250
2.AA	0c	1.E	1c
4BB	.	.	.
1C	.	.	1e
.	.	2F	.
=251	=251	=251	=251
0GG	1B	1.G	1d
.	1G	.	[1g
.	.	4F	.
.	.	4E	.
=252	=252	=252	=252
0D	0A	1D	2g]
.	.	.	2f
.	.	[1d	[1f
=253	=253	=253	=253
1E	1.G	2d]	2f]
.	.	2B	2e
1C	.	1c	[1e
.	4F	.	.
.	4E	.	.
=254	=254	=254	=254
1.D	1F	0A	2e]
.	.	.	4d
.	.	.	4c
.	1F	.	4d
.	.	.	4c
4E	.	.	4B
4F	.	.	4A
=255	=255	=255	=255
1G	2.E	1B	2G
.	.	.	1g
.	4F	.	.
1C	2G	[1c	.
.	[2A	.	2e
=256	=256	=256	=256
0r	4A]	2c]	2f
.	4G	.	.
.	2E	2B	2g
.	2F	2A	2a
.	2G	2B	2e
=257	=257	=257	=257
1r	2A	4c	2f
.	.	4B	.
.	2E	4A	1e
.	.	4G	.
1FF	1F	1A	.
.	.	.	2d
=258	=258	=258	=258
1.C	0E	1G	1e
.	.	1c	1r
2D	.	.	.
=259	=259	=259	=259
1E	1r	2B	1g
.	.	1c	.
2.C	1e	.	1g
.	.	4B	.
4D	.	4A	.
=260	=260	=260	=260
2E	1c	2G	2g
1F	.	2F	1a
.	2d	2A	.
2E	[2e	2B	2g
=261	=261	=261	=261
1C	2e]	1c	1e
.	2A	.	.
2D	1B	2r	2d
[2E	.	2B	[2g
=262	=262	=262	=262
2E]	1c	1e	2g]
2F	.	.	2a
1G	2B	2d	1b
.	[2G	2B	.
=263	=263	=263	=263
1C	2G]	1c	1e
.	2A	.	.
1G	1B	[1B	1r
=264	=264	=264	=264
1G	2E	2B]	0r
.	1e	2G	.
1E	.	1G	.
.	4d	.	.
.	4c	.	.
=265	=265	=265	=265
1F	4d	1A	1r
.	4c	.	.
.	4B	.	.
.	4A	.	.
1E	2.G	2B	1b
.	.	[2G	.
.	4A	.	.
=266	=266	=266	=266
0r	2B	2G]	2g
.	2c	2F	2a
.	2B	2G	2b
.	[2e	2C	[2cc
=267	=267	=267	=267
1GG	4e]	2r	4cc]
.	4d	.	4b
.	2B	2.G	1b
1AA	1c	.	.
.	.	4F	.
.	.	4F	2a
.	.	4E	.
=268	=268	=268	=268
2GG	2B	1G	2b
1C	2.e	.	2.cc
.	.	1r	.
.	4d	.	4b
2BB	2f	.	[2dd
=269	=269	=269	=269
2C	2e	1C	4dd]
.	.	.	4cc
2AA	2c	.	1cc
1GG	1d	2.G	.
.	.	.	2b
.	.	4F	.
=270	=270	=270	=270
1AA	2r	4E	1cc
.	.	4D	.
.	1c	2C	.
1GG	.	1D	1r
.	2B	.	.
=271	=271	=271	=271
1AA	2c	1C	2r
.	1A	.	1cc
1E	.	1r	.
.	2G	.	2b
=272	=272	=272	=272
2C	2A	2E	2cc
2AA	2c	2F	1a
1E	1B	1G	.
.	.	.	2g
=273	=273	=273	=273
1AA	2A	2E	2a
.	1e	2C	2cc
1r	.	1G	1b
.	2d	.	.
=274	=274	=274	=274
0r	2c	1A	2a
.	1e	.	1cc
.	.	1F	.
.	2d	.	4b
.	.	.	4a
=275	=275	=275	=275
1C	2e	1E	1.g
.	1e	.	.
4C	.	[1G	.
4D	.	.	.
4E	4d	.	4f
4F	4c	.	4e
=276	=276	=276	=276
2G	2B	1G]	2d
2C	2c	.	2g
2.G	2B	1E	2a
.	[2G	.	[2b
4A	.	.	.
=277	=277	=277	=277
1B	4G]	0r	4b]
.	4A	.	4cc
.	2B	.	2dd
2G	2E	.	2b
[2A	[2e	.	[2cc
=278	=278	=278	=278
4A]	2e]	1r	2cc]
4G	.	.	.
2A	4d	.	4b
.	4c	.	4a
1E	1B	1e	2.g#i
.	.	.	4f#i
=279	=279	=279	=279
1F	2A	1c	1.a
.	1c	.	.
1F	.	1A	.
.	2d	.	4g
.	.	.	4f
=280	=280	=280	=280
1E	2.e	2B	[0g
.	.	2c	.
.	4d	.	.
1r	2B	2d	.
.	[2c	[2e	.
=281	=281	=281	=281
0r	2c]	2e]	0g]
.	4B	4d	.
.	4A	4c	.
.	1B	2d	.
.	.	[2G	.
=282	=282	=282	=282
0r	1E	4G]	1g
.	.	4A	.
.	.	2B	.
.	1E	2c	2e
.	.	2B	[2g
=283	=283	=283	=283
0r	1E	2B	4g]
.	.	.	4f
.	.	2G	1e
.	1F	2.A	.
.	.	.	2d
.	.	4B	.
=284	=284	=284	=284
1AA	1E	4c	1e
.	.	4d	.
.	.	2.c	.
1AA	2r	.	1e
.	.	4B	.
.	[2A	2c	.
=285	=285	=285	=285
1BB	2A]	1d	1r
.	2G	.	.
1AA	1A	1c	2r
.	.	.	[2a
=286	=286	=286	=286
1E	1B	2r	2a]
.	.	1G	2g
1r	1c	.	1a
.	.	2F	.
=287	=287	=287	=287
2r	2B	4G	1b
.	.	4F	.
1G	2G	4E	.
.	.	4D	.
.	1A	2C	1cc
2F	.	2AA	.
=288	=288	=288	=288
2G	2G	1E	2b
2E	1G	.	2g
1D	.	2r	1a
.	2F	[2d	.
=289	=289	=289	=289
1E	1G	2d]	2g
.	.	2c	1g
1D	1A	1d	.
.	.	.	2f#i
=290	=290	=290	=290
1E	1G	2B	0g
.	.	2.e	.
1E	2G	.	.
.	.	4d	.
.	[2c	4c	.
.	.	4B	.
=291	=291	=291	=291
1F	2c]	1A	1a
.	2d	.	.
2E	1e	2B	1g
2C	.	2c	.
=292	=292	=292	=292
2E	2e	2B	2g
2.D	1f	1d	1a
4E	.	.	.
4F	4e	[2A	4g
4G	4d	.	4f
=293	=293	=293	=293
2A	1c	4A]	2e
.	.	4B	.
2F	.	4c	2a
.	.	4d	.
2E	2c	2e	2g
2D	[2d	2f	[2f
=294	=294	=294	=294
2BB-	4d]	2d	2f]
.	4c	.	.
2C	2A	2c	2e
1GG	1B	2B	1d
.	.	[2G	.
=295	=295	=295	=295
2.C	0c	2G]	1r
.	.	1G	.
4D	.	.	.
2E	.	.	1c
[2F	.	[2A	.
=296	=296	=296	=296
2F]	1r	2A]	1d
4E	.	4G	.
4D	.	4F	.
1C	1c	1E	1e
=297	=297	=297	=297
1r	1d	1D	1f
1C	1e	2C	1g
.	.	[2c	.
=298	=298	=298	=298
1C	2.c	2c]	1g
.	.	4B	.
.	4d	4A	.
1r	2e	2G	2g
.	[2f	2F	[2a
=299	=299	=299	=299
1r	4f]	2D	4a]
.	4e	.	4g
.	4d	2E	1cc
.	4c	.	.
2r	1d	2F	.
2GG	.	2G	2b
=300	=300	=300	=300
1AA	2c	2E	1cc
.	1c	2C	.
1GG	.	2D	1r
.	2B	2G	.
=301	=301	=301	=301
2r	1c	2A	2r
2AA	.	2c	1a
1E	1r	1B	.
.	.	.	2g
=302	=302	=302	=302
2.F	1c	1A	2a
.	.	.	2cc
4E	.	.	.
2D	2d	1r	2b
[2C	[2e	.	[2cc
=303	=303	=303	=303
2C]	2e]	2E	2cc]
2D	4d	2F	4b
.	4c	.	4a
2E	2B	2G	2g
[2AA	[2c	2E	[2a
=304	=304	=304	=304
2AA]	2c]	2C	2a]
2BB	4B	2D	4g
.	4A	.	4f
2C	2G	2E	2e
[2FF	[2A	2C	[2f
=305	=305	=305	=305
2FF]	4A]	2.c	4f]
.	4G	.	4e
2C	2E	.	1e
.	.	4B	.
1D	1F	4A	.
.	.	4G	.
.	.	[2A	2d
=306	=306	=306	=306
2AA	[0El	2A]	[0el
2.C	.	2G	.
.	.	2A	.
4BB	.	.	.
2AA	.	2c	.
=307	=307	=307	=307
2GG	0E_	2B	0e_
1AA	.	1c	.
4GG	.	4B	.
4FF	.	4A	.
=308	=308	=308	=308
0EEl	0E]	0Bl	0e]
==	==	==	==
*-	*-	*-	*-
!!!RDF**kern: l=long note in original notation
!!!RDF**kern: i=editorial accidental
!!!RDF**kern: V=start of tuplet marker
!!!RDF**kern: Z=end of tuplet marker
!!!ENC:	Jesse Rodin; Megan K. Eagen 2013/04/23
!!!END:	2013/04/23/
!!!EED:	Jesse Rodin
!!!EEV:	2013/05/08/
!!!ONB:	Translated from MusicXML and edited on 2013/05/08/ by Craig Sapp
!!muse2ps: T^@{OPR}^u^@{ONM}{. }@{OTL}^C^@{COM}^i2I100v85,90,85,150c90Q16
